src/lib/runemarks/svg/factions-chaos-bladeborn-spiteclaws-swarm.svg

<svg xmlns="http://www.w3.org/2000/svg" xml:space="preserve" fill-rule="evenodd" stroke-linejoin="round" stroke-miterlimit="2" clip-rule="evenodd" viewBox="0 0 300 300"><path fill-rule="nonzero" d="M46.881 4.737c25.454.848 25.454.848 33.635 24.476 5.461 15.86 5.461 15.86 21.735 15.86h95.139c15.86 0 15.86 0 20.473-14.903 7.941-24.715 7.941-24.715 34.505-24.649h13.881c4.59 0 5.787 1.675 3.48 6.179-3.437 6.266-6.962 13.836-10.008 21.69l-.457 1.37c-2.937 7.92 0 11.095 7.92 9.986 7.027-1.48 15.621-2.677 24.323-3.35l.718-.043c7.92 0 9.682 3.025 5.787 9.421-5.091 8.398-11.095 16.252-15.86 24.867-3.568 6.896-8.789 6.984-14.837 5.939-4.874-1.349-10.682-2.459-16.665-3.068l-.457-.043a19 19 0 0 0-1.174-.043c-7.593 0-14.054 4.874-16.447 11.639l-.043.131c-16.317 33.983-33.308 67.792-52.084 100.447-11.509 19.863-1.044 33.199 8.572 48.015 0 .391 1.262.391 1.74.871 13.881 14.729 13.706 14.577 0 29.153-7.049 7.92-13.249 15.86-20.385 23.779-3.96 4.199-7.92 4.046-9.746-2.937s-2.611-14.011-4.286-20.994c-1.044-4.046-2.415-7.571-4.178-10.9l.109.261c-.805-1.588-2.937-2.524-4.504-3.72a22.4 22.4 0 0 0-2.784 4.438l-.066.152c-2.371 7.44-4.199 14.968-6.723 22.343-3.894 11.313-6.353 12.032-14.12 3.568s-15.055-18.057-22.996-26.76c-4.678-5.07-3.655-8.789.63-13.467 6.026-6.81 11.573-14.098 17.209-21.233 9.681-12.271 5.939-25.172 0-37.072-13.88-29.327-29.023-58.066-43.055-87.132-6.026-12.596-11.509-21.082-29.023-17.209C17.273 88.282 8.157 67.701.607 47.642c-1.588-4.286 0-6.179 4.112-6.244 9.203 0 18.492 0 27.674-.478 2.784 0 7.136-1.588 7.941-3.482s-1.588-5.787-2.698-8.637c0-.544-.957-.957-1.262-1.436L23.755 7.806l23.127-3.068zm99.511 68.182v1.588h-27.586c-10.856.544-12.836 3.785-8.398 13.228a4291 4291 0 0 0 33.308 70.511c.957 2.067 4.372 4.829 5.634 4.351a12.8 12.8 0 0 0 6.787-5.787l.043-.066c11.573-22.495 22.691-45.231 34.091-67.792 3.111-6.178 2.524-9.986-5.004-10.943l-38.878-5.091z"/></svg>

<?xml version="1.0" encoding="UTF-8" standalone="no"?>
<!DOCTYPE svg PUBLIC "-//W3C//DTD SVG 1.1//EN" "http://www.w3.org/Graphics/SVG/1.1/DTD/svg11.dtd">
<svg width="100%" height="100%" viewBox="0 0 300 300" version="1.1" xmlns="http://www.w3.org/2000/svg" xmlns:xlink="http://www.w3.org/1999/xlink" xml:space="preserve" xmlns:serif="http://www.serif.com/" style="fill-rule:evenodd;clip-rule:evenodd;stroke-linejoin:round;stroke-miterlimit:2;">
    <path d="M46.881,4.737C72.335,5.585 72.335,5.585 80.516,29.213C85.977,45.073 85.977,45.073 102.251,45.073L197.39,45.073C213.25,45.073 213.25,45.073 217.863,30.17C225.804,5.455 225.804,5.455 252.368,5.521L266.249,5.521C270.839,5.521 272.036,7.196 269.729,11.7C266.292,17.966 262.767,25.536 259.721,33.39L259.264,34.76C256.327,42.68 259.264,45.855 267.184,44.746C274.211,43.266 282.805,42.069 291.507,41.396L292.225,41.353C300.145,41.353 301.907,44.378 298.012,50.774C292.921,59.172 286.917,67.026 282.152,75.641C278.584,82.537 273.363,82.625 267.315,81.58C262.441,80.231 256.633,79.121 250.65,78.512L250.193,78.469C249.802,78.443 249.411,78.428 249.019,78.426C241.426,78.426 234.965,83.3 232.572,90.065L232.529,90.196C216.212,124.179 199.221,157.988 180.445,190.643C168.936,210.506 179.401,223.842 189.017,238.658C189.017,239.049 190.279,239.049 190.757,239.529C204.638,254.258 204.463,254.106 190.757,268.682C183.708,276.602 177.508,284.542 170.372,292.461C166.412,296.66 162.452,296.507 160.626,289.524C158.8,282.541 158.015,275.513 156.34,268.53C155.296,264.484 153.925,260.959 152.162,257.63L152.271,257.891C151.466,256.303 149.334,255.367 147.767,254.171C146.669,255.536 145.734,257.026 144.983,258.609L144.917,258.761C142.546,266.201 140.718,273.729 138.194,281.104C134.3,292.417 131.841,293.136 124.074,284.672C116.307,276.208 109.019,266.615 101.078,257.912C96.4,252.842 97.423,249.123 101.708,244.445C107.734,237.635 113.281,230.347 118.917,223.212C128.598,210.941 124.856,198.04 118.917,186.14C105.037,156.813 89.894,128.074 75.862,99.008C69.836,86.412 64.353,77.926 46.839,81.799C17.273,88.282 8.157,67.701 0.607,47.642C-0.981,43.356 0.607,41.463 4.719,41.398C13.922,41.398 23.211,41.398 32.393,40.92C35.177,40.92 39.529,39.332 40.334,37.438C41.139,35.544 38.746,31.651 37.636,28.801C37.636,28.257 36.679,27.844 36.374,27.365L23.755,7.806L46.882,4.738L46.881,4.737ZM146.392,72.919L146.392,74.507L118.806,74.507C107.95,75.051 105.97,78.292 110.408,87.735C121.297,111.339 132.4,134.844 143.716,158.246C144.673,160.313 148.088,163.075 149.35,162.597C152.232,161.544 154.642,159.49 156.137,156.81L156.18,156.744C167.753,134.249 178.871,111.513 190.271,88.952C193.382,82.774 192.795,78.966 185.267,78.009L146.389,72.918L146.392,72.919Z" style="fill-rule:nonzero;"/>
</svg>
